static/assets/images/tokens/eura.svg

<svg xmlns="http://www.w3.org/2000/svg" fill="none" viewBox="0 0 256 256"><path fill="url(#paint0_linear_4193_3713)" d="M128 256c70.692 0 128-57.308 128-128S198.692 0 128 0 0 57.308 0 128s57.308 128 128 128"/><path fill="#fff" d="m197.823 110.372-69.916-71.394-69.922 71.394 34.958 35.693 34.964-35.693 34.959 35.693z"/><path fill="#1F2333" d="M125.09 210.557q-5.212 0-8.971-1.879-3.697-1.94-5.698-5.456-1.94-3.576-1.94-8.425v-27.52h8.002v27.762q0 3.88 2.182 6.122 2.243 2.243 6.425 2.243t6.365-2.243q2.242-2.243 2.242-6.122v-27.762h8.003v27.52q0 4.849-2.001 8.425-1.94 3.516-5.699 5.456-3.696 1.88-8.91 1.879m34.902-.849v-42.431h18.428q4.002 0 6.971 1.393 2.97 1.395 4.607 3.941t1.637 6.001v.728q0 3.817-1.819 6.183-1.818 2.363-4.486 3.454v1.091q2.425.123 3.759 1.697 1.333 1.516 1.334 4.062v13.881h-8.002v-12.73q0-1.454-.788-2.363-.726-.909-2.486-.909h-11.152v16.002zm8.003-23.276h9.577q2.849 0 4.425-1.517 1.636-1.575 1.636-4.121v-.606q0-2.545-1.575-4.062-1.578-1.576-4.486-1.576h-9.577z"/><path fill="#1F2333" fill-rule="evenodd" d="M63.618 210.707v-44.429h29.276v9.271H73.618v8.125h17.578v9.273H73.618v8.488h19.64v9.272zm52.045-1.14-.008-.005c-2.629-1.378-4.671-3.331-6.102-5.846l-.005-.009-.005-.008c-1.387-2.556-2.061-5.535-2.061-8.902v-28.519h9.999v28.761c0 2.389.666 4.155 1.895 5.42 1.254 1.252 3.106 1.946 5.714 1.946 2.613 0 4.439-.697 5.649-1.941l.009-.009c1.268-1.267 1.951-3.031 1.951-5.416v-28.761h9.998v28.519c0 3.37-.695 6.353-2.125 8.91-1.394 2.525-3.442 4.479-6.113 5.859l-.005.002c-2.638 1.34-5.771 1.987-9.364 1.987s-6.744-.647-9.418-1.984zm24.036-6.345q2-3.576 2.001-8.425v-27.52h-8.003v27.762q0 3.88-2.242 6.122-2.182 2.243-6.365 2.243t-6.425-2.243q-2.182-2.243-2.182-6.122v-27.762h-8.002v27.52q0 4.849 1.94 8.425 2 3.516 5.698 5.456 3.759 1.88 8.971 1.879 5.214 0 8.91-1.879 3.76-1.94 5.699-5.456m19.294 7.485v-44.429h19.427c2.783 0 5.257.485 7.395 1.489 2.136 1.002 3.822 2.434 5.023 4.304 1.209 1.88 1.795 4.074 1.795 6.541v.728c0 2.703-.645 4.997-2.026 6.791-1.026 1.335-2.246 2.397-3.659 3.177 1.148.307 2.128.9 2.896 1.805 1.084 1.236 1.577 2.843 1.577 4.714v14.88h-10v-13.729c0-.781-.206-1.321-.544-1.71l-.012-.014-.013-.015c-.215-.269-.678-.535-1.705-.535h-10.154v16.003zm9.002-17.001h11.152q1.76 0 2.486.909.788.91.788 2.363v12.73h8.002v-13.881q-.001-2.546-1.334-4.062-1.334-1.575-3.759-1.697v-1.091q2.668-1.091 4.486-3.454 1.82-2.366 1.819-6.183v-.728q0-3.456-1.637-6.001t-4.607-3.941q-2.97-1.392-6.971-1.393h-18.428v42.431h8.003zm13.355-16.874c-.81-.81-2.02-1.283-3.778-1.283h-8.579v9.884h8.579c1.722 0 2.918-.455 3.732-1.237.871-.838 1.329-1.941 1.329-3.402v-.606c0-1.474-.446-2.551-1.268-3.341zm.647 8.083q-1.577 1.517-4.425 1.517h-9.577V174.55h9.577q2.908 0 4.486 1.576 1.575 1.517 1.575 4.062v.606q0 2.546-1.636 4.121" clip-rule="evenodd"/><defs><linearGradient id="paint0_linear_4193_3713" x1="41.509" x2="184.486" y1="205.57" y2="78.406" gradientUnits="userSpaceOnUse"><stop offset=".073" stop-color="#AAC4FD"/><stop offset="1" stop-color="#76A0FC"/></linearGradient></defs></svg>

<svg width="256" height="256" viewBox="0 0 256 256" fill="none" xmlns="http://www.w3.org/2000/svg">
<path d="M128 256C198.692 256 256 198.692 256 128C256 57.3076 198.692 0 128 0C57.3075 0 0 57.3076 0 128C0 198.692 57.3075 256 128 256Z" fill="url(#paint0_linear_4193_3713)"/>
<path d="M197.823 110.372L127.907 38.978L57.9853 110.372L92.9431 146.065L127.907 110.372L162.866 146.065L197.823 110.372Z" fill="white"/>
<path d="M125.09 210.557C121.615 210.557 118.625 209.931 116.119 208.678C113.654 207.384 111.755 205.566 110.421 203.222C109.128 200.837 108.481 198.03 108.481 194.797V167.277H116.483V195.039C116.483 197.625 117.21 199.666 118.665 201.161C120.16 202.657 122.302 203.404 125.09 203.404C127.879 203.404 130 202.657 131.455 201.161C132.95 199.666 133.697 197.625 133.697 195.039V167.277H141.7V194.797C141.7 198.03 141.032 200.837 139.699 203.222C138.406 205.566 136.506 207.384 134 208.678C131.536 209.931 128.566 210.557 125.09 210.557Z" fill="#1F2333"/>
<path d="M159.992 209.708V167.277H178.42C181.088 167.277 183.411 167.742 185.391 168.67C187.371 169.601 188.907 170.913 189.998 172.611C191.089 174.308 191.635 176.308 191.635 178.612V179.34C191.635 181.885 191.029 183.946 189.816 185.523C188.604 187.098 187.109 188.25 185.33 188.977V190.068C186.947 190.15 188.2 190.715 189.089 191.765C189.977 192.775 190.423 194.13 190.423 195.827V209.708H182.421V196.978C182.421 196.009 182.158 195.221 181.633 194.615C181.149 194.009 180.32 193.706 179.147 193.706H167.995V209.708H159.992ZM167.995 186.432H177.572C179.471 186.432 180.946 185.926 181.997 184.915C183.088 183.865 183.633 182.491 183.633 180.794V180.188C183.633 178.491 183.108 177.137 182.058 176.126C181.006 175.076 179.511 174.55 177.572 174.55H167.995V186.432Z" fill="#1F2333"/>
<path fill-rule="evenodd" clip-rule="evenodd" d="M63.6184 210.707V166.278H92.8938V175.549H73.6176V183.674H91.1964V192.947H73.6176V201.435H93.2574V210.707H63.6184ZM115.663 209.567L115.655 209.562C113.026 208.184 110.984 206.231 109.553 203.716L109.548 203.707L109.543 203.699C108.156 201.143 107.482 198.164 107.482 194.797V166.278H117.481V195.039C117.481 197.428 118.147 199.194 119.376 200.459C120.63 201.711 122.482 202.405 125.09 202.405C127.703 202.405 129.529 201.708 130.739 200.464L130.748 200.455C132.016 199.188 132.699 197.424 132.699 195.039V166.278H142.697V194.797C142.697 198.167 142.002 201.15 140.572 203.707C139.178 206.232 137.13 208.186 134.459 209.566L134.454 209.568C131.816 210.908 128.683 211.555 125.09 211.555C121.496 211.555 118.346 210.908 115.672 209.571L115.663 209.567ZM139.699 203.222C141.032 200.837 141.7 198.03 141.7 194.797V167.277H133.697V195.039C133.697 197.625 132.95 199.666 131.455 201.161C130 202.657 127.879 203.404 125.09 203.404C122.302 203.404 120.16 202.657 118.665 201.161C117.21 199.666 116.483 197.625 116.483 195.039V167.277H108.481V194.797C108.481 198.03 109.128 200.837 110.421 203.222C111.755 205.566 113.654 207.384 116.119 208.678C118.625 209.931 121.615 210.557 125.09 210.557C128.566 210.557 131.536 209.931 134 208.678C136.506 207.384 138.406 205.566 139.699 203.222ZM158.993 210.707V166.278H178.42C181.203 166.278 183.677 166.763 185.815 167.767C187.951 168.769 189.637 170.201 190.838 172.071C192.047 173.951 192.633 176.145 192.633 178.612V179.34C192.633 182.043 191.988 184.337 190.607 186.131C189.581 187.466 188.361 188.528 186.948 189.308C188.096 189.615 189.076 190.208 189.844 191.113C190.928 192.349 191.421 193.956 191.421 195.827V210.707H181.421V196.978C181.421 196.197 181.215 195.657 180.877 195.268L180.865 195.254L180.852 195.239C180.637 194.97 180.174 194.704 179.147 194.704H168.993V210.707H158.993ZM167.995 193.706H179.147C180.32 193.706 181.149 194.009 181.633 194.615C182.158 195.221 182.421 196.009 182.421 196.978V209.708H190.423V195.827C190.423 194.13 189.977 192.775 189.089 191.765C188.2 190.715 186.947 190.15 185.33 190.068V188.977C187.109 188.25 188.604 187.098 189.816 185.523C191.029 183.946 191.635 181.885 191.635 179.34V178.612C191.635 176.308 191.089 174.308 189.998 172.611C188.907 170.913 187.371 169.601 185.391 168.67C183.411 167.742 181.088 167.277 178.42 167.277H159.992V209.708H167.995V193.706ZM181.35 176.832C180.54 176.022 179.33 175.549 177.572 175.549H168.993V185.433H177.572C179.294 185.433 180.49 184.978 181.304 184.196C182.175 183.358 182.633 182.255 182.633 180.794V180.188C182.633 178.714 182.187 177.637 181.365 176.847L181.35 176.832ZM181.997 184.915C180.946 185.926 179.471 186.432 177.572 186.432H167.995V174.55H177.572C179.511 174.55 181.006 175.076 182.058 176.126C183.108 177.137 183.633 178.491 183.633 180.188V180.794C183.633 182.491 183.088 183.865 181.997 184.915Z" fill="#1F2333"/>
<defs>
<linearGradient id="paint0_linear_4193_3713" x1="41.5093" y1="205.57" x2="184.486" y2="78.4064" gradientUnits="userSpaceOnUse">
<stop offset="0.0729167" stop-color="#AAC4FD"/>
<stop offset="1" stop-color="#76A0FC"/>
</linearGradient>
</defs>
</svg>
